icons/skip-forward-outline.svg

<svg xmlns="http://www.w3.org/2000/svg" width="24" height="24" viewBox="0 0 24 24">
  <path d="M21,2 C21.5128358,2 21.9355072,2.38604019 21.9932723,2.88337887 L22,3 L22,21 C22,21.5522847 21.5522847,22 21,22 C20.4871642,22 20.0644928,21.6139598 20.0067277,21.1166211 L20,21 L19.9995989,13.179 L12.5315979,17.8479983 C11.8988523,18.2434643 11.0874993,17.831082 11.0079458,17.1154423 L11.0015989,17 L11.0015989,13.178 L3.53159789,17.8479983 C2.89885228,18.2434643 2.08749928,17.831082 2.00794585,17.1154423 L2.00159895,17 L2.00159895,7 C2.00159895,6.21456446 2.86554988,5.73572169 3.53159789,6.1520017 L3.53159789,6.1520017 L11.0015989,10.821 L11.0015989,7 C11.0015989,6.25383624 11.7813147,5.78437245 12.4303391,6.09619955 L12.5315979,6.1520017 L19.9995989,10.82 L20,3 C20,2.44771525 20.4477153,2 21,2 Z M4.00159895,8.803 L4.00159895,15.196 L9.11659895,12 L4.00159895,8.803 Z M13.0015989,8.803 L13.0015989,15.196 L18.1165989,12 L13.0015989,8.803 Z"/>
</svg>

<svg xmlns="http://www.w3.org/2000/svg" viewBox="0 0 24 24">
  <path d="M21 2a1 1 0 0 1 1 .88V21a1 1 0 0 1-2 .12v-7.94l-7.47 4.67a1 1 0 0 1-1.52-.73v-3.94l-7.48 4.67a1 1 0 0 1-1.52-.73V7a1 1 0 0 1 1.52-.85L11 10.82V7a1 1 0 0 1 1.43-.9l.1.05L20 10.82V3a1 1 0 0 1 1-1zM4 8.8v6.4L9.12 12 4 8.8zm9 0v6.4l5.12-3.2L13 8.8z"/>
</svg>
